swiss/communes/1361.svg

<?xml version="1.0" encoding="UTF-8" standalone="no"?>
<!-- Created with Inkscape (http://www.inkscape.org/) -->

<svg
   xmlns:dc="http://purl.org/dc/elements/1.1/"
   xmlns:cc="http://creativecommons.org/ns#"
   xmlns:rdf="http://www.w3.org/1999/02/22-rdf-syntax-ns#"
   xmlns:svg="http://www.w3.org/2000/svg"
   xmlns="http://www.w3.org/2000/svg"
   xmlns:sodipodi="http://sodipodi.sourceforge.net/DTD/sodipodi-0.dtd"
   xmlns:inkscape="http://www.inkscape.org/namespaces/inkscape"
   version="1.0"
   width="208.86046"
   height="244.65999"
   id="svg2780"
   inkscape:version="0.92.4 (5da689c313, 2019-01-14)"
   sodipodi:docname="Alpthal-blazon.svg">
  <metadata
     id="metadata27">
    <rdf:RDF>
      <cc:Work
         rdf:about="">
        <dc:format>image/svg+xml</dc:format>
        <dc:type
           rdf:resource="http://purl.org/dc/dcmitype/StillImage" />
        <dc:title></dc:title>
      </cc:Work>
    </rdf:RDF>
  </metadata>
  <sodipodi:namedview
     pagecolor="#ffffff"
     bordercolor="#666666"
     borderopacity="1"
     objecttolerance="10"
     gridtolerance="10"
     guidetolerance="10"
     inkscape:pageopacity="0"
     inkscape:pageshadow="2"
     inkscape:window-width="3259"
     inkscape:window-height="1417"
     id="namedview25"
     showgrid="false"
     inkscape:zoom="2"
     inkscape:cx="-126.88479"
     inkscape:cy="35.45046"
     inkscape:window-x="-8"
     inkscape:window-y="-8"
     inkscape:window-maximized="1"
     inkscape:current-layer="svg2780"
     inkscape:measure-start="104.255,149.787"
     inkscape:measure-end="104.255,126.383"
     showguides="true"
     inkscape:object-paths="true"
     inkscape:snap-intersection-paths="true"
     inkscape:snap-global="true" />
  <defs
     id="defs2782" />
  <path
     inkscape:connector-curvature="0"
     style="fill:#009645;fill-opacity:1;fill-rule:evenodd;stroke:#000000;stroke-width:1.99999988;stroke-linecap:butt;stroke-miterlimit:4;stroke-dashoffset:0;stroke-opacity:1"
     id="path4212"
     d="m 1,1 3.761095,158.00304 c 2.686489,112.85918 196.651755,112.85918 199.338255,0 L 207.86045,1 Z" />
  <path
     style="opacity:1;fill:#cc2918;fill-opacity:1;stroke:#000000;stroke-width:1;stroke-miterlimit:4;stroke-dasharray:none;stroke-dashoffset:4.57999992;stroke-opacity:1"
     d="M 1.0002625,1.0110294 207.86045,1 204.06553,160.14458 c -1.30999,12.06538 -2.47683,24.15784 -8.78791,35.27731 z"
     id="path953"
     inkscape:connector-curvature="0"
     sodipodi:nodetypes="ccccc" />
  <path
     id="path901-1-4-6"
     style="opacity:1;fill:#ffffff;fill-opacity:1;stroke:#000000;stroke-width:1;stroke-miterlimit:4;stroke-dasharray:none;stroke-dashoffset:4.57999992;stroke-opacity:1"
     d="M 170.8344,74.722126 V 49.690549 h 25.03157 c 0,-4.171931 0,-8.343861 0,-12.515792 H 170.8344 V 12.14318 c -4.17194,0 -8.34386,0 -12.5158,0 v 25.031577 h -25.03157 c 0,4.171931 0,8.343861 0,12.515792 h 25.03157 v 25.031577 c 4.17194,0 8.34386,0 12.5158,0 z"
     inkscape:connector-curvature="0"
     sodipodi:nodetypes="ccccccccccccc" />
  <path
     id="path9987-9-9-4-6"
     style="opacity:1;fill:#ffffff;fill-opacity:1;stroke:#000000;stroke-width:0.99999994;stroke-miterlimit:20;stroke-dasharray:none;stroke-dashoffset:4.57999992;stroke-opacity:1"
     d="m 159.64399,230.27929 c -2.97458,-9.90919 -5.43478,-20.1878 -12.02153,-27.49967 C 135.90851,189.77611 113.49887,188.77029 101.7837,175.76545 90.068512,162.76062 91.405802,140.37411 79.691872,127.37061 67.977902,114.36713 45.568252,113.36128 33.853102,100.35642 22.137902,87.351594 23.475214,64.965053 11.761262,51.961594 9.0137543,48.911632 5.6778416,46.521703 2.029529,44.482167 L 1.0000014,1 23.734123,1.2416641 c 9.898634,4.2043767 20.42418,7.704983 27.282909,15.3187709 11.713942,13.003499 10.37668,35.389975 22.09184,48.394841 11.71516,13.004842 34.124808,14.01067 45.838768,27.014179 11.71391,13.003495 10.37667,35.389975 22.09183,48.394845 11.71517,13.00483 34.12483,14.01064 45.83877,27.01417 5.59488,6.21082 8.21243,14.56216 10.6969,23.00942 -7.32949,17.84135 -20.78303,30.446 -37.93115,39.8914 z"
     inkscape:connector-curvature="0"
     sodipodi:nodetypes="cssssscccssssscc" />
  <path
     inkscape:connector-curvature="0"
     style="fill:none;fill-opacity:1;fill-rule:evenodd;stroke:#000000;stroke-width:1.99999988;stroke-linecap:butt;stroke-miterlimit:4;stroke-dashoffset:0;stroke-opacity:1"
     id="path4212-1"
     d="M 1,0.99999834 4.761095,159.00304 c 2.686489,112.85918 196.651755,112.85918 199.338255,0 l 3.7611,-158.00304166 z" />
</svg>

<svg xmlns="http://www.w3.org/2000/svg" version="1.0" width="208.86" height="244.66"><path style="fill:#009645;fill-opacity:1;fill-rule:evenodd;stroke:#000;stroke-width:1.99999988;stroke-linecap:butt;stroke-miterlimit:4;stroke-dashoffset:0;stroke-opacity:1" d="m1 1 3.761 158.003c2.687 112.86 196.652 112.86 199.338 0L207.86 1z"/><path style="opacity:1;fill:#cc2918;fill-opacity:1;stroke:#000;stroke-width:1;stroke-miterlimit:4;stroke-dasharray:none;stroke-dashoffset:4.57999992;stroke-opacity:1" d="M1 1.011 207.86 1l-3.794 159.145c-1.31 12.065-2.477 24.157-8.788 35.277z"/><path style="opacity:1;fill:#fff;fill-opacity:1;stroke:#000;stroke-width:1;stroke-miterlimit:4;stroke-dasharray:none;stroke-dashoffset:4.57999992;stroke-opacity:1" d="M170.834 74.722V49.691h25.032V37.175h-25.032V12.143H158.32v25.032h-25.032V49.69h25.032v25.031h12.515z"/><path style="opacity:1;fill:#fff;fill-opacity:1;stroke:#000;stroke-width:.99999994;stroke-miterlimit:20;stroke-dasharray:none;stroke-dashoffset:4.57999992;stroke-opacity:1" d="M159.644 230.28c-2.975-9.91-5.435-20.189-12.022-27.5-11.713-13.004-34.123-14.01-45.838-27.015-11.715-13.004-10.378-35.39-22.092-48.394-11.714-13.004-34.124-14.01-45.839-27.015-11.715-13.004-10.378-35.39-22.092-48.394-2.747-3.05-6.083-5.44-9.731-7.48L1 1l22.734.242c9.899 4.204 20.424 7.705 27.283 15.318 11.714 13.004 10.377 35.39 22.092 48.395 11.715 13.005 34.125 14.01 45.839 27.014 11.714 13.004 10.376 35.39 22.091 48.395 11.716 13.005 34.125 14.01 45.84 27.014 5.594 6.211 8.212 14.563 10.696 23.01-7.33 17.841-20.783 30.446-37.931 39.891z"/><path style="fill:none;fill-opacity:1;fill-rule:evenodd;stroke:#000;stroke-width:1.99999988;stroke-linecap:butt;stroke-miterlimit:4;stroke-dashoffset:0;stroke-opacity:1" d="m1 1 3.761 158.003c2.687 112.86 196.652 112.86 199.338 0L207.86 1z"/></svg>
